!!!OTL: Die Mordeltern Es waren einst zwei Bauernsoehn,
!!!ARE: Europa, Mitteleuropa, Schweiz
!!!YOR: 4, S. 310
!!    ????
!!!SCT: Q0085b
!!!YEM: Copyright 1995, estate of Helmut Schaffrath.
**kern
*ICvox
*Ivox
!! Mixed meters:  3/4; 2/4
*M3/4
*k[f#]
*G:
{8g
8g
8a
=1
8a
8g
4d
8g
8a
=2
4b
8r}
{8g
8f#
8a
=3
8a
8f#
4d
8g
8a
=4
4b
8r}
{8b
8b
8b
=5
8dd
8b
4ee
8a
8cc
=6
*M2/4
8b}
{8a
8g
8b
=7
*M3/4
8dd
8b
4dd
8a
8cc
=8
4.b}
==
!!!AGN: Ballade, Habgier, Mord, Reue, Selbstmord
!!!ONB: ESAC (Essen Associative Code) Database: BALLADE
!!!AMT: irregular
!!!AIN: vox
!!!EED: Helmut Schaffrath
!!!EEV: 1.0
*-
